X:366
T:Waiting for the Federals
M:4/4
K:G
B4 B2 AB | d2 B2 A2 G2 | B4 d2 B2 | ABAG E2 D2 | 
B4 B2 AB | d2 B2 A2 G2 | ABAG E2 F2 | G4 G2 D2 | 
B4 B2 AB | d2 B2 A2 G2 | B4 d2 B2 | ABAG E2 D2 | 
B4 B2 AB | d2 B2 A2 G2 | ABAG E2 F2 | G4 G2 Bd || 
g4 gage | d2 B2 A2 G2 | g4 gfga | b2 e2 e2 f2 | 
gaba g2 ge | dged BA G2 | ABAG E2 F2 | G4 G2 Bd | 
g4 gage | d2 B2 A2 G2 | g4 gfga | b2 e2 e2 f2 | 
gaba g2 ge | dged BA G2 | ABAG E2 F2 | G4 G4 || 

